X:1
T:Title
%%score { 1 | 2 }
L:1/8
M:3/4
K:Bb
V:1 treble nm="Grand Piano"
V:2 bass 
V:1
 z2 z[Q:1/4=92] [DF] [DB]>[DB] | [DB]3 [DF] GB | F3 F B>B | B3 B [=Ed][Ec] |[M:3/8] [Fc]3 | %5
 [EF][DB]>[DB] |[M:3/4] [DB]3 [Fd] [^Fd][Ac] | B3 B A>G | c3 B A[=EG] |[M:3/8] F3 | F[Dd]>[Fd] | %11
[M:3/4] d3 d ed | [=EG]3 [EG] c>c | c3 c dc |[M:3/8] [B,DF]3 | [F,CE][F,B,D]>[F,CE] | %16
[M:3/4][K:treble] [B,DF]3 [DB] [B,DB][Gc] | [^Fd]3 [Ge] [Gd][Gc] | BF G2 c2 |[M:3/8] [DB]3 |] %20
V:2
 z2 z [B,,B,] [B,,F,]>[B,,F,] | [B,,F,]3 [B,,B,] [E,B,E][G,B,E] | [B,D]3 [B,D] [G,B,D]>[G,B,D] | %3
 [G,B,D]3 [G,B,D] [C,B,][C,B,] |[M:3/8] [F,A,]3 | [F,A,][B,,B,]>[B,,F,] | %6
[M:3/4] [B,,F,]3 [B,,B,] [D,A,][D,D] | [G,DG]3 [G,DG] [CF]>[B,C=E] | %8
 [A,CF]3 [G,DF] [CF][K:bass][C,B,] |[M:3/8] [F,A,]3 | [F,A,E][B,,B,]>[B,,B,] | %11
[M:3/4][K:treble] [B,F]3 [B,F] [G,=B,G][G,B,F] | [C,C]3 [C,B,] [F,A,F]>[F,A,=E] | %13
 [F,A,E]3 [F,A,E] [F,G,F][F,A,E] |[M:3/8] B,,3 | B,,B,,>B,, |[M:3/4] B,,3 B, G,[E,G,] | %17
 [D,A,]3 [C,C] [D,=B,][E,C] | [F,DF][F,B,D] [F,B,E]2 [F,A,E]2 |[M:3/8] [B,,B,]3 |] %20

